X: 14364
T: Gally Canter, The
R: jig
M: 6/8
K: Dmajor
|:DFA BAF|DFA def|agf edB|AFD ~E3|
DFA BAF|DFA def|agf edB|Adc d3:|
|:f2f ~g3|fga bge|~f3 edB|AFD ~E3|
GFE DFA|Bcd ecA|f2a bge|1 edc d2 e:|2 edc dAF||

